X:1
T:Extremadura, 86.866
T:Extremadura, 86.866
T:Clara H. Fiske Scott, 1896
T:Public Domain Courtesy of the Cyber Hymnal™
C:Clara H. Fiske Scott, 1896
Z:Public Domain
Z:Courtesy of the Cyber Hymnal™
%%score ( 1 2 ) ( 3 4 )
L:1/8
Q:1/4=100
M:3/4
K:D
V:1 treble 
V:2 treble 
V:3 bass 
V:4 bass 
V:1
 [FA]2 | [FA][FA] [^E^G]2 [FA]2 | [GB][FA] [Gd]2 [DB]2 | [DA][DB] [DA]2 [DF]2 | E4 [CG]2 | %5
 [DF][CG] [DA]2 [Fd]2 | [Ed][Ee] [Ec]2 (BA) | [Dd][DF] [DE]2 [EG]2 | [EF]4 [DF]2 | %9
 [DE][DB] D2 [A,C]2 | [A,D]4 |] %11
V:2
 x2 | x6 | x6 | x6 | E4 x2 | x6 | x4 C2 | x6 | x6 | x2 (DA,) x2 | x4 |] %11
V:3
 [D,D]2 | [D,D][D,D] [D,D]2 [D,D]2 | [D,D][D,D] [D,B,]2 [D,G,]2 | [D,F,][D,G,] (F,G,) D2 | %4
 [A,C]4 [A,,A,]2 | [D,A,][E,A,] [F,A,]2 [D,A,]2 | [B,,^G,][B,,G,] [A,,A,]2 [G,A,]2 | %7
 [F,A,][F,A,] [G,B,]2 [A,C]2 | [^A,C]4 B,2 | [G,B,][G,,E,] [A,,F,]2 [A,,G,]2 | [D,F,]4 |] %11
V:4
 x2 | x6 | x6 | x2 D,2 (D,F,) | x6 | x6 | x6 | x6 | x4 B,2 | x6 | x4 |] %11

